ummisco.gama.ui.shared/svg/window/icon64.svg

<svg xmlns="http://www.w3.org/2000/svg" xmlns:xl="http://www.w3.org/1999/xlink" width="64" height="64" version="1.1" viewBox="-842.5 -3089.652 64 64"><g id="ICONES" fill="none" fill-opacity="1" stroke="none" stroke-dasharray="none" stroke-opacity="1"><title>ICONES</title><g id="ICONES_Calque_1"><title>Calque 1</title><g id="Group_4307"><g id="Graphic_4316"><path fill="#fff" d="M -820.1 -3089.652 L -800.9 -3089.652 C -794.5 -3089.652 -791.3 -3089.652 -787.46 -3088.372 C -784.26 -3087.092 -781.06 -3083.892 -779.78 -3080.692 C -778.5 -3076.852 -778.5 -3073.652 -778.5 -3067.252 L -778.5 -3048.052 C -778.5 -3041.652 -778.5 -3038.452 -779.78 -3034.612 C -781.06 -3031.412 -784.26 -3028.212 -787.46 -3026.932 C -791.3 -3025.652 -794.5 -3025.652 -800.9 -3025.652 L -820.1 -3025.652 C -826.5 -3025.652 -829.7 -3025.652 -833.54 -3026.932 C -836.74 -3028.212 -839.94 -3031.412 -841.22 -3034.612 C -842.5 -3038.452 -842.5 -3041.652 -842.5 -3048.052 L -842.5 -3067.252 C -842.5 -3073.652 -842.5 -3076.852 -841.22 -3080.692 C -839.94 -3083.892 -836.74 -3087.092 -833.54 -3088.372 C -829.7 -3089.652 -826.5 -3089.652 -820.1 -3089.652 M -820.1 -3089.652"/></g><g id="Group_4308"><g id="Graphic_4315"><path fill="#efb54f" fill-opacity=".252" d="M -791.3198 -3076.832 C -801.9127 -3087.425 -819.0873 -3087.425 -829.6802 -3076.832 C -840.2733 -3066.2392 -840.2733 -3049.0646 -829.6802 -3038.4717 C -819.0873 -3027.8787 -801.9127 -3027.8787 -791.3198 -3038.4717 C -780.72675 -3049.0646 -780.72675 -3066.2392 -791.3198 -3076.832 M -793.8771 -3074.2748 C -784.6965 -3065.0942 -784.6965 -3050.2096 -793.8771 -3041.029 C -803.0577 -3031.8484 -817.9423 -3031.8484 -827.1229 -3041.029 C -836.3035 -3050.2096 -836.3035 -3065.0942 -827.1229 -3074.2748 C -817.9423 -3083.4554 -803.0577 -3083.4554 -793.8771 -3074.2748"/><path stroke="#efb64f" stroke-linecap="round" stroke-linejoin="round" stroke-width="0" d="M -791.3198 -3076.832 C -801.9127 -3087.425 -819.0873 -3087.425 -829.6802 -3076.832 C -840.2733 -3066.2392 -840.2733 -3049.0646 -829.6802 -3038.4717 C -819.0873 -3027.8787 -801.9127 -3027.8787 -791.3198 -3038.4717 C -780.72675 -3049.0646 -780.72675 -3066.2392 -791.3198 -3076.832 M -793.8771 -3074.2748 C -784.6965 -3065.0942 -784.6965 -3050.2096 -793.8771 -3041.029 C -803.0577 -3031.8484 -817.9423 -3031.8484 -827.1229 -3041.029 C -836.3035 -3050.2096 -836.3035 -3065.0942 -827.1229 -3074.2748 C -817.9423 -3083.4554 -803.0577 -3083.4554 -793.8771 -3074.2748"/></g><g id="Graphic_4314"><path fill="#d3673a" fill-opacity=".249" d="M -796.1148 -3072.037 C -804.0595 -3079.982 -816.9405 -3079.982 -824.8852 -3072.037 C -832.8299 -3064.0924 -832.8299 -3051.2115 -824.8852 -3043.2667 C -816.9405 -3035.322 -804.0595 -3035.322 -796.1148 -3043.2667 C -788.1701 -3051.2115 -788.1701 -3064.0924 -796.1148 -3072.037 M -798.6722 -3069.4797 C -792.1398 -3062.9474 -792.1398 -3052.3564 -798.6722 -3045.824 C -805.2045 -3039.2917 -815.7955 -3039.2917 -822.3278 -3045.824 C -828.8602 -3052.3564 -828.8602 -3062.9474 -822.3278 -3069.4797 C -815.7955 -3076.012 -805.2045 -3076.012 -798.6722 -3069.4797"/><path stroke="#d2673a" stroke-linecap="round" stroke-linejoin="round" stroke-width="0" d="M -796.1148 -3072.037 C -804.0595 -3079.982 -816.9405 -3079.982 -824.8852 -3072.037 C -832.8299 -3064.0924 -832.8299 -3051.2115 -824.8852 -3043.2667 C -816.9405 -3035.322 -804.0595 -3035.322 -796.1148 -3043.2667 C -788.1701 -3051.2115 -788.1701 -3064.0924 -796.1148 -3072.037 M -798.6722 -3069.4797 C -792.1398 -3062.9474 -792.1398 -3052.3564 -798.6722 -3045.824 C -805.2045 -3039.2917 -815.7955 -3039.2917 -822.3278 -3045.824 C -828.8602 -3052.3564 -828.8602 -3062.9474 -822.3278 -3069.4797 C -815.7955 -3076.012 -805.2045 -3076.012 -798.6722 -3069.4797"/></g><g id="Graphic_4313"><path fill="#3570a0" fill-opacity=".25" d="M -800.9099 -3067.242 C -806.2064 -3072.5385 -814.7936 -3072.5385 -820.0901 -3067.242 C -825.3866 -3061.9456 -825.3866 -3053.3583 -820.0901 -3048.0618 C -814.7936 -3042.7653 -806.2064 -3042.7653 -800.9099 -3048.0618 C -795.6134 -3053.3583 -795.6134 -3061.9456 -800.9099 -3067.242 M -803.4672 -3064.6847 C -799.5831 -3060.8006 -799.5831 -3054.5032 -803.4672 -3050.619 C -807.3513 -3046.735 -813.6487 -3046.735 -817.5328 -3050.619 C -821.4169 -3054.5032 -821.4169 -3060.8006 -817.5328 -3064.6847 C -813.6487 -3068.5688 -807.3513 -3068.5688 -803.4672 -3064.6847"/><path stroke="#3770a0" stroke-linecap="round" stroke-linejoin="round" stroke-width="0" d="M -800.9099 -3067.242 C -806.2064 -3072.5385 -814.7936 -3072.5385 -820.0901 -3067.242 C -825.3866 -3061.9456 -825.3866 -3053.3583 -820.0901 -3048.0618 C -814.7936 -3042.7653 -806.2064 -3042.7653 -800.9099 -3048.0618 C -795.6134 -3053.3583 -795.6134 -3061.9456 -800.9099 -3067.242 M -803.4672 -3064.6847 C -799.5831 -3060.8006 -799.5831 -3054.5032 -803.4672 -3050.619 C -807.3513 -3046.735 -813.6487 -3046.735 -817.5328 -3050.619 C -821.4169 -3054.5032 -821.4169 -3060.8006 -817.5328 -3064.6847 C -813.6487 -3068.5688 -807.3513 -3068.5688 -803.4672 -3064.6847"/></g><g id="Graphic_4312"><path fill="#d3673a" d="M -802.3977 -3076.3192 C -809.8399 -3079.56 -818.8248 -3078.1366 -824.9119 -3072.0494 C -832.8567 -3064.1047 -832.8567 -3051.2238 -824.9119 -3043.279 C -822.9574 -3041.3245 -820.7041 -3039.851 -818.299 -3038.858 L -816.8854 -3042.1882 C -818.8749 -3043.0047 -820.7388 -3044.2207 -822.3545 -3045.8364 C -828.8869 -3052.3688 -828.8869 -3062.9597 -822.3545 -3069.492 C -817.3409 -3074.5057 -809.9366 -3075.6713 -803.8113 -3072.989 Z"/><path stroke="#d2673a" stroke-linecap="round" stroke-linejoin="round" stroke-width="0" d="M -802.3977 -3076.3192 C -809.8399 -3079.56 -818.8248 -3078.1366 -824.9119 -3072.0494 C -832.8567 -3064.1047 -832.8567 -3051.2238 -824.9119 -3043.279 C -822.9574 -3041.3245 -820.7041 -3039.851 -818.299 -3038.858 L -816.8854 -3042.1882 C -818.8749 -3043.0047 -820.7388 -3044.2207 -822.3545 -3045.8364 C -828.8869 -3052.3688 -828.8869 -3062.9597 -822.3545 -3069.492 C -817.3409 -3074.5057 -809.9366 -3075.6713 -803.8113 -3072.989 Z"/></g><g id="Graphic_4311"><path fill="#3770a1" d="M -801.095 -3042.1545 L -797.2528 -3042.1545 L -797.2528 -3054.632 L -810.4125 -3054.632 L -810.4125 -3050.989 L -801.095 -3050.989 Z"/><path stroke="#000" stroke-linecap="round" stroke-linejoin="round" stroke-width="0" d="M -801.095 -3042.1545 L -797.2528 -3042.1545 L -797.2528 -3054.632 L -810.4125 -3054.632 L -810.4125 -3050.989 L -801.095 -3050.989 Z"/></g><g id="Graphic_4310"><path fill="#3570a0" d="M -802.9238 -3051.181 C -803.0759 -3051.006 -803.2351 -3050.8354 -803.4015 -3050.669 C -807.2856 -3046.785 -813.5829 -3046.785 -817.467 -3050.669 C -821.3511 -3054.553 -821.3511 -3060.8504 -817.467 -3064.7345 C -815.663 -3066.5385 -813.3384 -3067.5047 -810.9767 -3067.633 L -810.9767 -3071.2535 C -814.2647 -3071.1227 -817.5141 -3069.802 -820.0244 -3067.292 C -825.3209 -3061.9954 -825.3209 -3053.408 -820.0244 -3048.1116 C -814.7279 -3042.815 -806.1406 -3042.815 -800.8441 -3048.1116 C -799.9111 -3049.0446 -799.1425 -3050.0797 -798.5382 -3051.181 Z"/><path stroke="#3770a0" stroke-linecap="round" stroke-linejoin="round" stroke-width="0" d="M -802.9238 -3051.181 C -803.0759 -3051.006 -803.2351 -3050.8354 -803.4015 -3050.669 C -807.2856 -3046.785 -813.5829 -3046.785 -817.467 -3050.669 C -821.3511 -3054.553 -821.3511 -3060.8504 -817.467 -3064.7345 C -815.663 -3066.5385 -813.3384 -3067.5047 -810.9767 -3067.633 L -810.9767 -3071.2535 C -814.2647 -3071.1227 -817.5141 -3069.802 -820.0244 -3067.292 C -825.3209 -3061.9954 -825.3209 -3053.408 -820.0244 -3048.1116 C -814.7279 -3042.815 -806.1406 -3042.815 -800.8441 -3048.1116 C -799.9111 -3049.0446 -799.1425 -3050.0797 -798.5382 -3051.181 Z"/></g><g id="Graphic_4309"><path fill="#efb54f" d="M -787.9824 -3072.7846 C -788.9442 -3074.2125 -790.0567 -3075.569 -791.3198 -3076.832 C -801.9127 -3087.425 -819.0873 -3087.425 -829.6802 -3076.832 C -838.0979 -3068.4145 -839.8265 -3055.841 -834.8661 -3045.7163 L -831.7247 -3047.53 C -835.8907 -3056.2657 -834.3567 -3067.041 -827.1229 -3074.2748 C -817.9423 -3083.4554 -803.0577 -3083.4554 -793.8771 -3074.2748 C -792.8428 -3073.2405 -791.925 -3072.1337 -791.1237 -3070.971 Z"/><path stroke="#efb64f" stroke-linecap="round" stroke-linejoin="round" stroke-width="0" d="M -787.9824 -3072.7846 C -788.9442 -3074.2125 -790.0567 -3075.569 -791.3198 -3076.832 C -801.9127 -3087.425 -819.0873 -3087.425 -829.6802 -3076.832 C -838.0979 -3068.4145 -839.8265 -3055.841 -834.8661 -3045.7163 L -831.7247 -3047.53 C -835.8907 -3056.2657 -834.3567 -3067.041 -827.1229 -3074.2748 C -817.9423 -3083.4554 -803.0577 -3083.4554 -793.8771 -3074.2748 C -792.8428 -3073.2405 -791.925 -3072.1337 -791.1237 -3070.971 Z"/></g></g></g></g></g></svg>

<svg xmlns="http://www.w3.org/2000/svg" width="64" height="64" viewBox="-842.5 -3089.652 64 64"><g fill="none"><path fill="#fff" d="M-820.1-3089.652h19.2c6.4 0 9.6 0 13.44 1.28 3.2 1.28 6.4 4.48 7.68 7.68 1.28 3.84 1.28 7.04 1.28 13.44v19.2c0 6.4 0 9.6-1.28 13.44-1.28 3.2-4.48 6.4-7.68 7.68-3.84 1.28-7.04 1.28-13.44 1.28h-19.2c-6.4 0-9.6 0-13.44-1.28-3.2-1.28-6.4-4.48-7.68-7.68-1.28-3.84-1.28-7.04-1.28-13.44v-19.2c0-6.4 0-9.6 1.28-13.44 1.28-3.2 4.48-6.4 7.68-7.68 3.84-1.28 7.04-1.28 13.44-1.28m0 0"/><path fill="#efb54f" fill-opacity=".252" d="M-791.32-3076.832c-10.593-10.593-27.767-10.593-38.36 0s-10.593 27.767 0 38.36 27.767 10.593 38.36 0 10.593-27.767 0-38.36m-2.557 2.557c9.18 9.18 9.18 24.065 0 33.246-9.18 9.18-24.065 9.18-33.246 0-9.18-9.18-9.18-24.065 0-33.246 9.18-9.18 24.065-9.18 33.246 0"/><path d="M-791.32-3076.832c-10.593-10.593-27.767-10.593-38.36 0s-10.593 27.767 0 38.36 27.767 10.593 38.36 0 10.593-27.767 0-38.36m-2.557 2.557c9.18 9.18 9.18 24.065 0 33.246-9.18 9.18-24.065 9.18-33.246 0-9.18-9.18-9.18-24.065 0-33.246 9.18-9.18 24.065-9.18 33.246 0"/><path fill="#d3673a" fill-opacity=".249" d="M-796.115-3072.037c-7.944-7.945-20.826-7.945-28.77 0-7.945 7.945-7.945 20.825 0 28.77 7.944 7.945 20.826 7.945 28.77 0 7.945-7.945 7.945-20.825 0-28.77m-2.557 2.557c6.532 6.533 6.532 17.124 0 23.656-6.533 6.532-17.123 6.532-23.656 0-6.532-6.532-6.532-17.123 0-23.656 6.533-6.532 17.123-6.532 23.656 0"/><path d="M-796.115-3072.037c-7.944-7.945-20.826-7.945-28.77 0-7.945 7.945-7.945 20.825 0 28.77 7.944 7.945 20.826 7.945 28.77 0 7.945-7.945 7.945-20.825 0-28.77m-2.557 2.557c6.532 6.533 6.532 17.124 0 23.656-6.533 6.532-17.123 6.532-23.656 0-6.532-6.532-6.532-17.123 0-23.656 6.533-6.532 17.123-6.532 23.656 0"/><path fill="#3570a0" fill-opacity=".25" d="M-800.91-3067.242c-5.296-5.296-13.884-5.296-19.18 0-5.297 5.296-5.297 13.884 0 19.18 5.296 5.297 13.884 5.297 19.18 0 5.297-5.296 5.297-13.884 0-19.18m-2.557 2.557c3.884 3.884 3.884 10.182 0 14.066-3.884 3.884-10.182 3.884-14.066 0-3.884-3.884-3.884-10.182 0-14.066 3.884-3.884 10.182-3.884 14.066 0"/><path d="M-800.91-3067.242c-5.296-5.296-13.884-5.296-19.18 0-5.297 5.296-5.297 13.884 0 19.18 5.296 5.297 13.884 5.297 19.18 0 5.297-5.296 5.297-13.884 0-19.18m-2.557 2.557c3.884 3.884 3.884 10.182 0 14.066-3.884 3.884-10.182 3.884-14.066 0-3.884-3.884-3.884-10.182 0-14.066 3.884-3.884 10.182-3.884 14.066 0"/><path fill="#d3673a" d="M-802.398-3076.32c-7.442-3.24-16.427-1.817-22.514 4.27-7.945 7.945-7.945 20.826 0 28.771a20.285 20.285 0 0 0 6.613 4.421l1.414-3.33a16.676 16.676 0 0 1-5.47-3.648c-6.532-6.533-6.532-17.124 0-23.656 5.014-5.014 12.418-6.18 18.544-3.497Z"/><path d="M-802.398-3076.32c-7.442-3.24-16.427-1.817-22.514 4.27-7.945 7.945-7.945 20.826 0 28.771a20.285 20.285 0 0 0 6.613 4.421l1.414-3.33a16.676 16.676 0 0 1-5.47-3.648c-6.532-6.533-6.532-17.124 0-23.656 5.014-5.014 12.418-6.18 18.544-3.497Z"/><path fill="#3770a1" d="M-801.095-3042.155h3.842v-12.477h-13.16v3.643h9.318Z"/><path d="M-801.095-3042.155h3.842v-12.477h-13.16v3.643h9.318Z"/><path fill="#3570a0" d="M-802.924-3051.181c-.152.175-.311.346-.478.512-3.884 3.884-10.18 3.884-14.065 0-3.884-3.884-3.884-10.181 0-14.066a9.91 9.91 0 0 1 6.49-2.898v-3.62a13.515 13.515 0 0 0-9.047 3.961c-5.297 5.297-5.297 13.884 0 19.18 5.296 5.297 13.883 5.297 19.18 0a13.567 13.567 0 0 0 2.306-3.069Z"/><path d="M-802.924-3051.181c-.152.175-.311.346-.478.512-3.884 3.884-10.18 3.884-14.065 0-3.884-3.884-3.884-10.181 0-14.066a9.91 9.91 0 0 1 6.49-2.898v-3.62a13.515 13.515 0 0 0-9.047 3.961c-5.297 5.297-5.297 13.884 0 19.18 5.296 5.297 13.883 5.297 19.18 0a13.567 13.567 0 0 0 2.306-3.069Z"/><path fill="#efb54f" d="M-787.982-3072.785a27.251 27.251 0 0 0-3.338-4.047c-10.593-10.593-27.767-10.593-38.36 0-8.418 8.418-10.147 20.991-5.186 31.116l3.141-1.814c-4.166-8.736-2.632-19.511 4.602-26.745 9.18-9.18 24.065-9.18 33.246 0a23.652 23.652 0 0 1 2.753 3.304Z"/><path d="M-787.982-3072.785a27.251 27.251 0 0 0-3.338-4.047c-10.593-10.593-27.767-10.593-38.36 0-8.418 8.418-10.147 20.991-5.186 31.116l3.141-1.814c-4.166-8.736-2.632-19.511 4.602-26.745 9.18-9.18 24.065-9.18 33.246 0a23.652 23.652 0 0 1 2.753 3.304Z"/></g></svg>
